static/images/clients/hertz.svg

<svg height="24" viewBox="0 0 86 24" width="86" xmlns="http://www.w3.org/2000/svg"><g fill="#fff"><path d="m9.99146961.16271187c-.78229914 3.64745762-1.55087371 7.18644066-2.33317284 10.80677963h8.56411683c.2744909-1.20677966.5627064-2.45423726.8234727-3.70169486.4666347-2.18305088.9195447-4.36610172 1.3999038-6.54915257.0411736-.20338983.2882154-.52881356.45291-.52881356 1.5234247-.05423729 3.0605738-.04067797 4.6937948-.04067797-.2744909 1.26101695-.5215328 2.44067797-.7822991 3.62033898-1.3587301 6.27796608-2.7174602 12.56949148-4.0761903 18.84745758-.2195926 1.0033899-.2058681 1.0033899-1.2626582 1.0033899h-3.0880229c-.2470418 0-.4940837-.0271186-.8646464-.040678.576431-2.7254237 1.1391374-5.3559322 1.7155683-8.0542373h-8.56411685c-.46663457 2.1559322-.93326914 4.2847458-1.38617916 6.4271187-.35683821 1.6677966-.35683821 1.6677966-2.09985557 1.6677966-.96071823 0-1.92143647 0-2.88215471-.0135593-.06862273 0-.12352091-.0271187-.30194001-.081356.06862273-.4203389.12352092-.8542373.20586819-1.2881356 1.50970009-7.1050847 3.01940016-14.21016945 4.50165116-21.3152542.12352091-.56949153.30194001-.82711865.96071823-.8 1.42735279.08135593 2.82725653.04067797 4.32323203.04067797z"/><path d="m36.8092329 18.1288136c.6587782 1.098305 1.3038319 2.1830508 2.0037838 3.3491525-.6999519.3932203-1.331281.8135593-2.0037838 1.1254237-2.539041 1.220339-5.2290521 1.6000001-8.0014104 1.1525424-3.3350647-.5288135-5.2290521-2.4677966-5.6819622-5.8576271-.4803591-3.620339.3842873-6.9694915 2.6351129-9.88474576 2.5253165-3.28135595 6.834824-4.56949154 10.8012179-3.33559324 2.9233283.90847458 4.625172 3.09152544 4.6526211 6.2237288.0137246 1.3423729-.2607664 2.6847458-.3980118 4.0271186-.0548982.4745763-.30194.6101695-.7822991.6101695-3.7742502-.0135593-7.5485004-.0135593-11.3090261-.0135593h-.7960237c-.7136764 2.2508475.5078082 4.0271187 2.813532 4.1762712 1.9488855.1220339 3.7605256-.3254237 5.4623694-1.2338983.1784191-.1084746.3568382-.2033898.60388-.338983zm-.2058682-6.7389831c.2607664-1.220339-.1646945-2.21016952-1.20776-2.79322031-.9332692-.5288136-1.9488856-.59661017-2.9919511-.39322038-1.5371492.29830512-3.1566456 1.81694919-3.3762384 3.18644069z"/><path d="m73.4812201 19.1593221h8.8797814c-.315664 1.4372881-.6176045 2.8203389-.9469935 4.1898305-.0274491.1220339-.3019398.2711864-.4666346.2711864-4.9133878.0135593-9.8267749 0-14.7401626 0-.0411736 0-.0823472-.0271186-.2195926-.0949153.1097963-.5559322.2607663-1.138983.329389-1.7355932.1921437-1.6542373.9195447-2.9288136 2.2233766-4.0677966 2.9782262-2.6033898 5.8054831-5.3694915 8.7013624-8.06779664.1784191-.16271184.4117364-.27118643.6176046-.40677964-.0548983-.08135595-.0960724-.16271184-.1509699-.23050848h-8.6190157c.3293897-1.55932203.6313295-2.99661015.9469942-4.47457626h15.4812879c-.2882156 1.41016949-.5627062 2.77966102-.8783709 4.1355932-.0548983.21694917-.3019399.37966101-.4803589.55593223-3.3487898 3.11864409-6.6975789 6.22372879-10.0326437 9.34237289-.1784191.1355932-.329389.2847457-.6450537.5830509z"/><path d="m61.7055597 9.01694914c-.4117364 1.95254236-.8234728 3.86440676-1.2352091 5.78983046-.1646946.7457628-.3431137 1.4915255-.4666346 2.2508475-.2607664 1.5322034.4117364 2.3864407 2.0037837 2.481356.8646464.0542372 1.7292929.0135593 2.6762866.0135593-.2882155 1.3288135-.5352574 2.5898305-.8371974 3.8237288-.027449.1355932-.2882154.2847457-.45291.3118644-2.1273046.4745762-4.1859866.3118644-6.079974-.8135593-2.0175083-1.1932203-2.539041-3.1186441-2.2508255-5.220339.3431136-2.5491525.8920954-5.0576271 1.3999036-7.579661.6313292-3.11864409 1.3450056-6.21016952 1.9900593-9.32881359.0960718-.47457627.2744909-.62372881.75485-.61016949 1.4410774.02711865 2.8684302.01355932 4.3918548.01355932-.30194 1.46440678-.5764309 2.86101695-.878371 4.33898305h5.174154c-.3156646 1.4779661-.5901555 2.84745762-.9195446 4.2033898-.0411737.1491526-.3980119.29830512-.6176046.31186444-1.5234247.02711863-3.0331247.01355931-4.6526212.01355931z"/><path d="m55.556963 4.56949153c-.30194 1.41016948-.5764309 2.779661-.90582 4.13559325-.0274491.12203389-.3842873.20338978-.5901555.24406779-1.0705146.16271184-2.1684783.20338978-3.2115438.46101689-.7960237.18983054-1.4136283.78644074-1.633221 1.61355934-.5215328 1.8711864-1.029341 3.7423729-1.4685264 5.6271187-.5078083 2.1559322-.9332692 4.3254237-1.4136283 6.4813559-.0411737.2033898-.3019401.4881356-.4803592.5016949-1.5097.040678-3.0056755.0271186-4.6388966.0271186.1921437-.9084745.3705628-1.7355932.5489819-2.5491525.7822991-3.4576271 1.4548019-6.9288136 2.3743465-10.359322 1.4410774-5.42372884 6.3956385-7.07796613 10.6639724-6.34576274.2195927 0 .45291.08135593.75485.16271187z"/></g></svg>

<?xml version="1.0" encoding="UTF-8"?>
<svg width="86px" height="24px" viewBox="0 0 86 24" version="1.1" xmlns="http://www.w3.org/2000/svg" xmlns:xlink="http://www.w3.org/1999/xlink">
    <!-- Generator: Sketch 62 (91390) - https://sketch.com -->
    <title>Hertz</title>
    <desc>Created with Sketch.</desc>
    <g id="UI-Design-(Teal)" stroke="none" stroke-width="1" fill="none" fill-rule="evenodd">
        <g id="Homepage-Teal" transform="translate(-670.000000, -852.000000)" fill="#FFFFFF" fill-rule="nonzero">
            <g id="Hertz" transform="translate(670.000000, 852.000000)">
                <path d="M9.99146961,0.162711867 C9.20917047,3.81016949 8.4405959,7.34915253 7.65829677,10.9694915 L16.2224136,10.9694915 C16.4969045,9.76271184 16.78512,8.51525424 17.0458863,7.26779664 C17.512521,5.08474576 17.965431,2.90169492 18.4457901,0.718644069 C18.4869637,0.515254238 18.7340055,0.18983051 18.8987001,0.18983051 C20.4221248,0.135593218 21.9592739,0.149152539 23.5924949,0.149152539 C23.318004,1.41016949 23.0709621,2.58983051 22.8101958,3.76949152 C21.4514657,10.0474576 20.0927356,16.338983 18.7340055,22.6169491 C18.5144129,23.620339 18.5281374,23.620339 17.4713473,23.620339 L14.3833244,23.620339 C14.1362826,23.620339 13.8892407,23.5932204 13.518678,23.579661 C14.095109,20.8542373 14.6578154,18.2237288 15.2342463,15.5254237 L6.67012945,15.5254237 C6.20349488,17.6813559 5.73686031,19.8101695 5.28395029,21.9525424 C4.92711208,23.620339 4.92711208,23.620339 3.18409472,23.620339 C2.22337649,23.620339 1.26265825,23.620339 0.301940014,23.6067797 C0.233317284,23.6067797 0.178419102,23.579661 0,23.5254237 C0.0686227299,23.1050848 0.123520919,22.6711864 0.20586819,22.2372881 C1.71556828,15.1322034 3.22526835,8.02711865 4.70751935,0.922033899 C4.83104026,0.35254237 5.00945936,0.0949152549 5.66823758,0.122033897 C7.09559037,0.203389831 8.49549411,0.162711867 9.99146961,0.162711867 Z" id="Path"></path>
                <path d="M36.8092329,18.1288136 C37.4680111,19.2271186 38.1130648,20.3118644 38.8130167,21.4779661 C38.1130648,21.8711864 37.4817357,22.2915254 36.8092329,22.6033898 C34.2701919,23.8237288 31.5801808,24.2033899 28.8078225,23.7559322 C25.4727578,23.2271187 23.5787704,21.2881356 23.1258603,17.8983051 C22.6455012,14.2779661 23.5101476,10.9288136 25.7609732,8.01355934 C28.2862897,4.73220339 32.5957972,3.4440678 36.5621911,4.6779661 C39.4855194,5.58644068 41.1873631,7.76949154 41.2148122,10.9016949 C41.2285368,12.2440678 40.9540458,13.5864407 40.8168004,14.9288135 C40.7619022,15.4033898 40.5148604,15.538983 40.0345013,15.538983 C36.2602511,15.5254237 32.4860009,15.5254237 28.7254752,15.5254237 L27.9294515,15.5254237 C27.2157751,17.7762712 28.4372597,19.5525424 30.7429835,19.7016949 C32.691869,19.8237288 34.5035091,19.3762712 36.2053529,18.4677966 C36.383772,18.359322 36.5621911,18.2644068 36.8092329,18.1288136 L36.8092329,18.1288136 Z M36.6033647,11.3898305 C36.8641311,10.1694915 36.4386702,9.17966098 35.3956047,8.59661019 C34.4623355,8.06779659 33.4467191,8.00000002 32.4036536,8.20338981 C30.8665044,8.50169493 29.247008,10.020339 29.0274152,11.3898305 L36.6033647,11.3898305 Z" id="Shape"></path>
                <path d="M73.4812201,19.1593221 L82.3610015,19.1593221 C82.0453375,20.5966102 81.743397,21.979661 81.414008,23.3491526 C81.3865589,23.4711865 81.1120682,23.620339 80.9473734,23.620339 C76.0339856,23.6338983 71.1205985,23.620339 66.2072108,23.620339 C66.1660372,23.620339 66.1248636,23.5932204 65.9876182,23.5254237 C66.0974145,22.9694915 66.2483845,22.3864407 66.3170072,21.7898305 C66.5091509,20.1355932 67.2365519,18.8610169 68.5403838,17.7220339 C71.51861,15.1186441 74.3458669,12.3525424 77.2417462,9.65423726 C77.4201653,9.49152542 77.6534826,9.38305083 77.8593508,9.24745762 C77.8044525,9.16610167 77.7632784,9.08474578 77.7083809,9.01694914 L69.0893652,9.01694914 C69.4187549,7.45762711 69.7206947,6.02033899 70.0363594,4.54237288 L85.5176473,4.54237288 C85.2294317,5.95254237 84.9549411,7.3220339 84.6392764,8.67796608 C84.5843781,8.89491525 84.3373365,9.05762709 84.1589175,9.23389831 C80.8101277,12.3525424 77.4613386,15.4576271 74.1262738,18.5762712 C73.9478547,18.7118644 73.7968848,18.8610169 73.4812201,19.1593221 L73.4812201,19.1593221 Z" id="Path"></path>
                <path d="M61.7055597,9.01694914 C61.2938233,10.9694915 60.8820869,12.8813559 60.4703506,14.8067796 C60.305656,15.5525424 60.1272369,16.2983051 60.003716,17.0576271 C59.7429496,18.5898305 60.4154524,19.4440678 62.0074997,19.5389831 C62.8721461,19.5932203 63.7367926,19.5525424 64.6837863,19.5525424 C64.3955708,20.8813559 64.1485289,22.1423729 63.8465889,23.3762712 C63.8191399,23.5118644 63.5583735,23.6610169 63.3936789,23.6881356 C61.2663743,24.1627118 59.2076923,24 57.3137049,22.8745763 C55.2961966,21.681356 54.7746639,19.7559322 55.0628794,17.6542373 C55.405993,15.1050848 55.9549748,12.5966102 56.462783,10.0745763 C57.0941122,6.95593221 57.8077886,3.86440678 58.4528423,0.745762711 C58.5489141,0.271186443 58.7273332,0.122033897 59.2076923,0.135593218 C60.6487697,0.162711867 62.0761225,0.149152539 63.5995471,0.149152539 C63.2976071,1.61355932 63.0231162,3.01016949 62.7211761,4.48813559 L67.8953301,4.48813559 C67.5796655,5.96610169 67.3051746,7.33559321 66.9757855,8.69152539 C66.9346118,8.84067799 66.5777736,8.98983051 66.3581809,9.00338983 C64.8347562,9.03050846 63.3250562,9.01694914 61.7055597,9.01694914 L61.7055597,9.01694914 Z" id="Path"></path>
                <path d="M55.556963,4.56949153 C55.255023,5.97966101 54.9805321,7.34915253 54.651143,8.70508478 C54.6236939,8.82711867 54.2668557,8.90847456 54.0609875,8.94915257 C52.9904729,9.11186441 51.8925092,9.15254235 50.8494437,9.41016946 C50.05342,9.6 49.4358154,10.1966102 49.2162227,11.0237288 C48.6946899,12.8949152 48.1868817,14.7661017 47.7476963,16.6508475 C47.239888,18.8067797 46.8144271,20.9762712 46.334068,23.1322034 C46.2928943,23.3355932 46.0321279,23.620339 45.8537088,23.6338983 C44.3440088,23.6745763 42.8480333,23.6610169 41.2148122,23.6610169 C41.4069559,22.7525424 41.585375,21.9254237 41.7637941,21.1118644 C42.5460932,17.6542373 43.218596,14.1830508 44.1381406,10.7525424 C45.579218,5.32881356 50.5337791,3.67457627 54.802113,4.40677966 C55.0217057,4.40677966 55.255023,4.48813559 55.556963,4.56949153 L55.556963,4.56949153 Z" id="Path"></path>
            </g>
        </g>
    </g>
</svg>
